X: 2
T:Hieland Laddie
M:2/4
L:1/8
K:F
F3/2G/2 AA| BG A2| AG G(F/2G/2)| AG GA| F3/2G/2 Ad|
(c/2B/2)(A/2G/2) (A3/2G/2)|FD D(C/2D/2)| FD DC| df cf|
(B/2A/2)(G/2F/2) A2| AG G(F/2G/2)| AG Gc| df cf|
(B/2A/2)(G/2F/2) (A3/2G/2)| FD D(C/2D/2)| FD DC|]
